artwork/resources/intui/icons/shell/tool-windows/app-quality-insights@20x20.svg

<svg width="20" height="20" viewBox="0 0 20 20" fill="none" xmlns="http://www.w3.org/2000/svg">
<path d="M14.094 2.5H5.90599C5.64565 2.5 5.39557 2.60153 5.20891 2.783L1.66947 6.22413C1.29254 6.59059 1.26371 7.18633 1.6035 7.58747L9.23695 16.5992C9.63638 17.0707 10.3636 17.0707 10.763 16.5992L18.3965 7.58747C18.7363 7.18633 18.7075 6.59059 18.3305 6.22413L14.7911 2.78301C14.6044 2.60153 14.3544 2.5 14.094 2.5Z" stroke="#6C707E" stroke-width="1.5" stroke-linecap="round"/>
<path d="M2 7.5H18" stroke="#6C707E" stroke-width="1.5" stroke-linecap="round"/>
<path d="M8.66667 2.5L6.22544 7.16053C6.0831 7.43226 6.07335 7.75429 6.199 8.03413L10 16.5" stroke="#6C707E" stroke-width="1.5" stroke-linecap="round"/>
<path d="M11.3333 2.5L13.7746 7.16053C13.9169 7.43226 13.9266 7.75429 13.801 8.03413L10 16.5" stroke="#6C707E" stroke-width="1.5" stroke-linecap="round"/>
</svg>

<svg width="20" height="20" viewBox="0 0 20 20" fill="none" xmlns="http://www.w3.org/2000/svg"><path d="M14.094 2.5H5.906a1 1 0 0 0-.697.283l-3.54 3.441a1 1 0 0 0-.066 1.363L9.238 16.6a1 1 0 0 0 1.526 0l7.633-9.012a1 1 0 0 0-.066-1.363l-3.539-3.441a1 1 0 0 0-.697-.283zM2 7.5h16" stroke="#6C707E" stroke-width="1.5" stroke-linecap="round"/><path d="M8.667 2.5L6.225 7.16a1 1 0 0 0-.026.874L10 16.5M11.333 2.5l2.442 4.66a1 1 0 0 1 .026.874L10 16.5" stroke="#6C707E" stroke-width="1.5" stroke-linecap="round"/></svg>
